icons/table.svg

<svg width="14" height="14" xmlns="http://www.w3.org/2000/svg"><path d="M2,4 L2,12 L12,12 L12,4 L2,4 Z M2,0 L12,0 C13.1045695,0 14,0.8954305 14,2 L14,12 C14,13.1045695 13.1045695,14 12,14 L2,14 C0.8954305,14 0,13.1045695 0,12 L0,2 C0,0.8954305 0.8954305,0 2,0 Z"/></svg>

<svg width="14" height="14" xmlns="http://www.w3.org/2000/svg" fill="currentColor"><path d="M2 4v8h10V4H2Zm0-4h10a2 2 0 0 1 2 2v10a2 2 0 0 1-2 2H2a2 2 0 0 1-2-2V2a2 2 0 0 1 2-2Z"/></svg>
